X: 5
T: The Pride of Petravore
R:hornpipe
M:C|
L:1/8
K:Em
B,2|"Em"E2 EF "G"G2 GA|"Em"BcBA G2E2|"D"D2DE FEFG|ABAG F2D2|
"Em"EDEF "G"GFGA|"Em"BcBA "G"G2GA|B2 Bc BAFG|1 "Em"E2 E2 E2 :|2 "Em"E2E2 E4||
|:"C"[e2c2] [e2c2] [e3c3]e|"G"dBGA B3c|"Em"BAFG "D"A2AB|AGED "Em"EFGA|!
"C"e2e2 g2ge|"G"dBGA B3c|B2 Bc BAFG|1 "Em"E2E2E4:|2 "Em"E2E2E2|]


